X: 5
T: Haste To The Wedding
R: jig
M: 6/8
L: 1/8
K: Dmaj
d |: AFA Agf | ede fdB | AFA AdA | FGF E2A |
ABA Agf | ede fdB | AFA g2e |1 fdd d2d :|2 fdd d2f |
|: fdf faf | gfg afd | gfg afd | fgf efg |
f2a agf | ede fdB | AFA Age |1 fdd d2f :|2 fdd d2 ||


Tune 582	Setting 13575

